X: 11148
T: Dulaman Na Binne Bui
R: strathspey
M: 4/4
K: Amixolydian
af|:eABA GA B/c/d|eABA A2 af|eABA GA B/c/d|1 e/f/g dB (3ABA af:|2 e/f/g dB A2 B/c/d||
|:eaag a2 ge|dBGA BGBd|e/f/g fa gfge|1 e/f/g dB A2 B/c/d:|2 e/f/g dB (3ABA af||

